X:1
T:Title
%%score { ( 1 3 ) | ( 2 4 ) }
L:1/8
Q:1/4=100
M:6/8
K:Bb
V:1 treble nm="Grand Piano"
V:3 treble 
V:2 bass 
V:4 bass 
V:1
 [DF][_D=E][=DF] [DB][FA][FB] | [Gc][GB][B,EG] [B,DF]3 | AGF FGE | D6 | %4
w: D.~B.~Towner * * * * *||||
 [DF][_D=E][=DF] [DB][FA][FB] | [Gc][GB][B,EG] [B,DF]3 | AGF FGA | [DB]6 | ccc [Ac]AF | FGA [DB]3 | %10
w: ||||||
 [Ec][Ac][Gc] cAF | FGA [DB]3 | [Fd][Fd][Fd] [Fd][Fc][FB] | [Gc][GB][EG] [DF]3 | AGF FGA | [DB]6 | %16
w: ||||||
 [Fd]3 z3 | [GB]3 z3 | AAA ABc | F3 z3 | [Fd]3 z3 |[M:15/16] [EG]3 z3/2 z3 |[M:3/4] dc BA GA | %23
w: |||||||
 B-[_DB-] [EB-] [=DB]3 |] %24
w: |
V:2
 [B,,B,][B,,B,][B,,B,] [B,,F,][C,F,][D,F,] | E,E,E, B,,3 | %2
 [F,CE][F,B,E][F,A,E] [F,A,E][F,A,E][F,A,C] | B,3 z3 | [B,,B,][B,,B,][B,,B,] [B,,F,][C,F,][D,F,] | %5
 E,E,E, B,,3 | [F,CE][F,B,E][F,A,E] [F,A,E][F,A,E][F,E] | [B,,F,]6 | %8
 [F,A,E][F,G,E][F,E] [F,E][F,CF][F,A,E] | [F,E][F,A,E][F,CE] [B,,B,]3 | %10
 [F,A,][F,E][F,E] [F,EF][F,CF][F,A,E] | [F,E][F,A,E][F,CE] [B,,B,]3 | %12
 [B,,B,][B,,B,][B,,B,] [B,,B,][C,A,][D,B,] | [E,B,][E,B,][E,B,] [B,,B,]3 | %14
 [F,CE][F,B,E][F,A,E] [F,E][F,A,E][F,CE] | [B,,B,]6 | [B,,B,]B,,B,, [B,,F,]3 | E,E,E, [E,B,E]3 | %18
 [F,E][F,A,E][F,CE] [F,CE][F,B,D][F,A,E] | .B,3 z3 | [B,,B,]B,,B,, [B,,F,]3 | %21
[M:15/16] E,E,/-E,/E,[E,B,]3/2- [E,B,]3 |[M:3/4] [F,B,F][F,A,E] [F,B,D][F,CF] [F,CE][F,E] | %23
 .F,2 z2 z2 |] %24
V:3
 x6 | x6 | x6 | z3 F,3 | x6 | x6 | x6 | x6 | x6 | x6 | x6 | x6 | x6 | x6 | x6 | x6 | z B,B, [DB]3 | %17
 z2 G, G3 | x6 | z B,B, B3 | z B,B, [DB]3 |[M:15/16] z G,/-G,/B,[Ge]3/2- [Ge]3 |[M:3/4] x6 | %23
 .D2 z2 z2 |] %24
V:4
 x6 | x6 | x6 | B,,6 | x6 | x6 | x6 | x6 | x6 | x6 | x6 | x6 | x6 | x6 | x6 | x6 | x6 | x6 | x6 | %19
 D-[F,D-][D,D-] [B,,F,D]3 | x6 |[M:15/16] x15/2 |[M:3/4] x6 | B,,-[B,,-=E,] [B,,-G,] [B,,F,]3 |] %24

